packages/core/src/svgs/ucjl.svg

<svg width="24" height="24" viewBox="0 0 24 24" fill="none" xmlns="http://www.w3.org/2000/svg">
<g clip-path="url(#clip0_31_20134)">
<path d="M0 0H24V24H0V0Z" fill="#F0F3FA"/>
<path d="M12 18.0002C13.5913 18.0002 15.1174 17.3681 16.2426 16.2428C17.3678 15.1176 18 13.5915 18 12.0002C18 10.4089 17.3678 8.88279 16.2426 7.75757C15.1174 6.63235 13.5913 6.00021 12 6.00021C10.4087 6.00021 8.88254 6.63235 7.75732 7.75757C6.63211 8.88279 5.99997 10.4089 5.99997 12.0002C5.99997 13.5915 6.63211 15.1176 7.75732 16.2428C8.88254 17.3681 10.4087 18.0002 12 18.0002ZM12 18.8574C13.8186 18.8574 15.5627 18.1349 16.8487 16.8489C18.1347 15.563 18.8571 13.8188 18.8571 12.0002C18.8571 10.1816 18.1347 8.43744 16.8487 7.15148C15.5627 5.86551 13.8186 5.14307 12 5.14307C10.1813 5.14307 8.4372 5.86551 7.15123 7.15148C5.86527 8.43744 5.14282 10.1816 5.14282 12.0002C5.14282 13.8188 5.86527 15.563 7.15123 16.8489C8.4372 18.1349 10.1813 18.8574 12 18.8574Z" fill="url(#paint0_linear_31_20134)"/>
<path d="M12 18C15.3137 18 18 15.3137 18 12C18 8.68629 15.3137 6 12 6C8.68629 6 6 8.68629 6 12C6 15.3137 8.68629 18 12 18Z" fill="url(#paint1_linear_31_20134)"/>
<path d="M12.4285 10.0714V7.5L9.42847 9.21429V10.2857C9.64275 10.5 10.0285 10.7143 10.7142 10.7143C11.3999 10.7143 12.1413 10.2857 12.4285 10.0714Z" fill="#D7E6F9"/>
<path d="M14.5713 8.57129L12.4285 10.0713V15.4284L14.5713 14.1427V8.57129Z" fill="#D5DBFB"/>
<path d="M10.7142 10.7141C10.2856 10.7141 9.50132 10.427 9.42847 10.2856V15.4284C9.50132 15.6427 9.85704 16.0713 10.7142 16.0713C11.5713 16.0713 12.2142 15.6427 12.4285 15.4284V10.0713C11.9999 10.2856 11.2585 10.7141 10.7142 10.7141Z" fill="white"/>
</g>
<defs>
<linearGradient id="paint0_linear_31_20134" x1="18.4285" y1="12.0002" x2="5.78568" y2="12.2145" gradientUnits="userSpaceOnUse">
<stop stop-color="#17C8FA"/>
<stop offset="1" stop-color="#975DFE"/>
</linearGradient>
<linearGradient id="paint1_linear_31_20134" x1="15" y1="7.28571" x2="8.78571" y2="16.7143" gradientUnits="userSpaceOnUse">
<stop stop-color="#B0AEFF"/>
<stop offset="1" stop-color="#278EDD"/>
</linearGradient>
<clipPath id="clip0_31_20134">
<rect width="24" height="24" fill="white"/>
</clipPath>
</defs>
</svg>

<svg xmlns="http://www.w3.org/2000/svg" width="24" height="24" fill="none" viewBox="0 0 24 24"><g clip-path="url(#a)"><path fill="#F0F3FA" d="M0 0h24v24H0z"/><path fill="url(#b)" d="M12 18a6 6 0 1 0 0-11.999 6 6 0 0 0 0 12m0 .857a6.857 6.857 0 1 0 0-13.714 6.857 6.857 0 0 0 0 13.714"/><path fill="url(#c)" d="M12 18a6 6 0 1 0 0-12 6 6 0 0 0 0 12"/><path fill="#D7E6F9" d="M12.429 10.071V7.5l-3 1.714v1.072c.214.214.6.428 1.285.428.686 0 1.427-.428 1.714-.643"/><path fill="#D5DBFB" d="m14.571 8.571-2.142 1.5v5.357l2.142-1.285z"/><path fill="#fff" d="M10.714 10.714c-.428 0-1.213-.287-1.286-.428v5.142c.073.215.429.643 1.286.643s1.5-.428 1.714-.643v-5.357c-.428.215-1.17.643-1.714.643"/></g><defs><linearGradient id="b" x1="18.428" x2="5.786" y1="12" y2="12.214" gradientUnits="userSpaceOnUse"><stop stop-color="#17C8FA"/><stop offset="1" stop-color="#975DFE"/></linearGradient><linearGradient id="c" x1="15" x2="8.786" y1="7.286" y2="16.714" gradientUnits="userSpaceOnUse"><stop stop-color="#B0AEFF"/><stop offset="1" stop-color="#278EDD"/></linearGradient><clipPath id="a"><path fill="#fff" d="M0 0h24v24H0z"/></clipPath></defs></svg>
